X:1
T:He Saves Me Through and Through
T:He Saves Me Through and Through
T:John Robson Sweney
T:Frances Jane (Fanny) Crosby, 1885
T:Public Domain Courtesy of the Cyber Hymnal™
T:Public Domain Courtesy of the Cyber Hymnal™
C:John Robson Sweney
Z:Public Domain
Z:Courtesy of the Cyber Hymnal™
%%score ( 1 2 ) ( 3 4 )
L:1/8
Q:1/4=110
M:6/8
K:Ab
V:1 treble 
V:2 treble 
V:3 bass 
V:4 bass 
V:1
 [CE] | [CE]2 [CE] ([CE][A,C])[CE] | [EA]2 [EB] [Ec]2 [Ee] | [Ee]2 [EB] (Bc)[Ed] | %4
w: 1.~The|blood that Je- * sus|shed for me When|groan- ing, dy- * ing|
w: 2.~In|per- fect trust * I|now re- sign My|all to Him * whose|
w: 3.~No|an- gel tongue * such|praise can bring, Nor|learn the song * that|
w: 4.~I|know not what * my|joy will be, When|face to face * my|
 [Ec]2 [EA] !fermata![DF]2 [DA] | [CA]2 [CE] ([A,C][CE])[CA] | [Ec]2 [Ed] [Ee]2 [Ec] | %7
w: on the tree, From|all trans- gress- * ion|cleans- eth me, And|
w: will is mine; He|fills my soul * with|love di- vine, And|
w: now I sing To|Him, my pro- * phet,|priest and king, Who|
w: Lord I see, But|this I know, * He|cleans- eth me, And|
 [DB]2 [CA] [Ec]2 [DB] | [CA]3- [CA]2 z ||"^Refrain" [Ee]3 [Ec]3 | [Ec][CE][DF] [CA]2 [Ec] | %11
w: saves me through and|through. *|||
w: saves me through and|through. *|Saved, saved,|yes, I am saved, My|
w: saves me through and|through. *|||
w: saves me through and|through. *|||
 [EB][EB][EB] [EB][EA][EB] | [Ec]3- [Ec]2 [_Gc] | [Fd]2 [Fd] (de)[Af] | %14
w: |||
w: heart is cre- at- ed a-|new; * The|blood of Je- * sus|
w: |||
w: |||
 [Ae]2 [Ae] !fermata![Ae]2 [Ec] | [DB]2 [CA] [Ec]2 [DB] | [CA]3- [CA]2 |] %17
w: |||
w: cleans- eth me, And|saves me through and|through. *|
w: |||
w: |||
V:2
 x | x6 | x6 | x3 E2 x | x6 | x6 | x6 | x6 | x6 || x6 | x6 | x6 | x6 | x3 F2 x | x6 | x6 | x5 |] %17
V:3
 [A,,A,] | [A,,A,]2 [A,,A,] (A,E,)[A,,A,] | [C,A,]2 [E,G,] A,2 [A,C] | %3
 [G,B,]2 [E,G,] (G,A,)[E,B,] | A,2 [C,A,] !fermata![D,A,]2 [D,F,] | %5
 [A,,E,]2 [A,,E,] (E,A,)[A,,A,] | A,2 [A,B,] [A,C]2 A, | [E,G,]2 E, E,2 E, | %8
 [A,,E,]3- [A,,E,]2 z || [A,C]3 A,3 | [A,,A,][A,,A,][A,,A,] [A,,E,]2 [A,,A,] | %11
 [E,G,][E,G,][E,G,] [E,G,][E,F,][E,G,] | A,3- A,2 A, | [D,A,]2 [D,A,] [D,A,]2 [D,D] | %14
 [A,C]2 [A,C] !fermata![A,C]2 [A,,A,] | [E,G,]2 E, E,2 E, | [A,,E,]3- [A,,E,]2 |] %17
V:4
 x | x3 A,,2 x | x3 A,2 x | x3 E,2 x | A,2 x4 | x3 A,,2 x | A,2 x A, x2 | x2 E, E,2 E, | x6 || %9
 x3 A,3 | x6 | x6 | A,3- A,2 A, | x6 | x6 | x2 E, E,2 E, | x5 |] %17

